X: 3
T: Good For the Tongue $1(R-147)
M: C|
Z: Transcribed to abc by Debby Knight
R: hornpipe
K: A
"A"ABcd ecAe| "D"fA"E"gA "A"aAAA| "D"FAAA "A"EAAB| "Bm"cdBG "E"AGFE|
"A"ABcd ecAe| "D"fA"E"gA "A"aAAA| "D"FAAA "A"EAAB| "E"cdBG "A"A4:|
|:"A"eAAA eAAA| "D"aAfA "A"eAAA|"D"aAfA "A"eAAB| "Bm"cdBG "E"AGFE|
"A"eAAA eAAA| "D"aAfA "A"eAAA|"D"aAfA "A"eAAB|  "E"cdBG "A"A4:|

#include "LeftHeader.h"
% ---------- set 64 ----------
%%text Set 64
%%vskip -1cm
%%scale .72
$SmallLMargin
$SmallRMargin
